X: 43122
T: Wing Commander Donald Mackenzie's
R: reel
M: 4/4
K: Dmajor
|:e|fA ~A2 fAeA|dBBA BdAd|BA ~A2 Bcde|fede fe ~e2|
fA ~A2 fAeA|dBBA BdAd|BA ~A2 Bcde|faef ddd:|
|:f|affa efdf|ed ~d2 fedA|BA ~A2 Bcde|fede fe ~e2|
affa efdf|ed ~d2 fedA|BA ~A2 Bcde|faef ddd:|

